!!!!SEGMENT: pl-sa--553-a-ix-33--004_anonim--arya.krn
!!!cenid: 18xx:561
!!!COM: Anonim
!!!COM-rismid: pe30004985
!!!CDT:
!!!CNT:
!!!OTL: Arya
!!!PDT:
!!!AGN: Secular; Aria
!!!SMS-siglum: PL-SA
!!!SMS-shelfmark: 553/A IX 33
!!!SMS-shelfwork: 004 W
!!!SMS-variant:
!!!SMS-altvar:
!!!NIFC-rismid: 1001112139
!!!URL-scan: http://bc.bdsandomierz.pl/dlibra/publication/1309/edition/1277/content
!!!ONB-nifc: Str. 13, s. 1-3
!!!AIN: 2 piano
!!!key:
**kern	**kern
*part2	*part1
*staff2	*staff1
*Ipiano	*Ipiano
*I"Piano	*I"Piano
*I'pf	*I'pf
*clefF4	*clefG2
*k[b-]	*k[b-]
*F:	*F:
*M6/8	*M6/8
8r	8cc\
=1	=1
8F\L	8a/L
8A\	8f/
8c\J	8cc/J
*rep	*
8F\L	8a/L
8A\	8f/
8c\J	8cc/J
*Xrep	*
=2	=2
8F\L	4.dd\
8B-\	.
8d\J	.
8F\L	4cc\
8A\	.
8c\J	8cc\
=3	=3
8F\L	8cc\L
8A\	8ff\
8c\J	8cc\J
*rep	*
8F\L	8cc\L
8A\	8b-\
8c\J	8a\J
*Xrep	*
=4	=4
8C\L	4g/
8E\	.
8G\J	8r
4C/	4r
8r	8cc\
=5	=5
8F\L	8dd\L
8B-\	8ee\
8d\J	8ff\J
*rep	*
8F\L	8dd\L
8B-\	8cc\
8d\J	8b-\J
*Xrep	*
=6	=6
8F\L	8a\L
8A\	8b-\
8c\J	8cc\J
8AA/L	4f/
8C/	.
8F/J	8a/
=7	=7
8BB-/L	8g/L
8D/	8a/
8G/J	8b-/J
8C/L	8g/L
8E/	8f/
8G/J	8e/J
=8	=8
4A 4AA;\	4.cc 4.f;/
8r	.
.	16qqdd/LL
.	16qqcc/JJ
.	16qqb-/LL
.	16qqa/
.	16qqb-/
.	16qqcc/
.	16qqdd/
.	16qqee/
.	16qqff/
.	16qqee/
.	16qqgg/
.	16qqff/JJ
.	16qqee/LL
.	16qqff/
.	16qqdd/JJ
.	8qqbn/
4A 4AA;\	4cc;/
8r	8cc/
!!LO:LB:g=original
=9	=9
8F\L	8dd\L
8B-\	8ee\
8d\J	8ff\J
*rep	*
8F\L	8dd\L
8B-\	8cc\
8d\J	8b-\J
*Xrep	*
=10	=10
8F\L	8a/L
8A\	8b-/
8c\J	8cc/J
8AA/L	4f/
8C/	.
8F/J	8a/
=11	=11
8BB-/L	8g/L
8D/	8dd/
8G/J	8cc/J
8C/L	8b-/L
8E/	8a/
8G/J	8g/J
=	=
!LO:TX:a:t=P:problem=[segno]na podwójnej kresce taktowej	!LO:TX:a:t=P:problem=[segno]na podwójnej kresce taktowej
4F\	4f/
=12||	=12||
8r	8ccc\
4.c 4.G 4.E\	8bb-\L
.	8gg\
.	8ccc\J
=13	=13
4.c 4.A 4.F\	8aa\L
.	8ff\
.	8ccc\J
4.c 4.C\	8bb-L 8gg\
.	8aa 8ff\
.	8ggJ 8ee\
=14	=14
4.c 4.A 4.F\	4ff\
.	8ccc\
4.c 4.G 4.E\	8bb-\L
.	8gg\
.	8ccc\J
=15	=15
4.c 4.A 4.F\	8aa\L
.	8ff\
.	8ccc\J
4.c 4.C\	8bb-L 8gg\
.	8aa 8ff\
.	8ggJ 8ee\
=16	=16
8F\L	8ffL 8cc 8a\
8C\	8ff 8cc 8a\
8AA\J	8ffJ 8cc 8a\
4FF/	4ff 4cc 4a;\
8r	8cc\
=17	=17
8F\L	8a/L
8A\	8f/
8c\J	8cc/J
*rep	*
8F\L	8a/L
8A\	8f/
8c\J	8cc/J
*Xrep	*
=18	=18
8F\L	4.dd\
8B-\	.
8d\J	.
8F\L	4cc\
8A\	.
8c\J	8cc\
=19	=19
8F\L	8cc\L
8A\	8ff\
!	!LO:TX:a:t=P:problem=w źródle łamanie systemu po pierwszej grupie trzech ósemek
8c\J	8cc\J
!!LO:LB:g=original
*rep	*
8F\L	8cc\L
8A\	8b-\
8c\J	8a\J
*Xrep	*
!!LO:LB:g=original
=20	=20
8C\L	4g/
8E\	.
8G\J	8r
4C/	4r
8r	8cc\
=21	=21
8F\L	8dd\L
8B-\	8ee\
8d\J	8ff\J
*rep	*
8F\L	8dd\L
8B-\	8cc\
8d\J	8b-\J
*Xrep	*
=22	=22
8F\L	8a/L
8A\	8b-/
8c\J	8cc/J
8AA/L	4f/
8C/	.
8F/J	8a/
=23	=23
8BB-/L	8g/L
8D/	8a/
8G/J	8b-/J
8C/L	8g/L
8E/	8f/
8G/J	8e/J
=24	=24
4A 4AA;\	4.cc 4.f;/
8ryy	.
.	16qqdd/LL
.	16qqcc/JJ
.	16qqb-/LL
.	16qqa/
.	16qqb-/
.	16qqcc/
.	16qqdd/
.	16qqee/
.	16qqff/
.	16qqee/
.	16qqgg/
.	16qqff/JJ
.	16qqee/LL
.	16qqff/
.	16qqee/JJ
.	4qqbn/
4A 4AA;\	4cc\;
8r	8cc\
=25	=25
8F\L	8dd\L
8B-\	8ee\
8d\J	8ff\J
*rep	*
8F\L	8dd\L
8B-\	8cc\
8d\J	8b-\J
*Xrep	*
=26	=26
8F\L	8a/L
8A\	8b-/
8c\J	8cc/J
8AA/L	4f/
8C/	.
8F/J	8a/
=27	=27
8BB-/L	8g/L
8D/	8dd/
8G/J	8cc/J
8C/L	8b-/L
8E/	8a/
8G/J	8g/J
=28	=28
!LO:TX:a:t=P:problem=[segno]na podwójnej kresce taktowej	!LO:TX:a:t=P:problem=[segno]na podwójnej kresce taktowej
4F\	4f/
=||	=||
*-	*-
!!!system-decoration: s1,s2
!!!EED: Antoni Szymański
!!!EEV: 2020-12-05
!!!ENC: Andrzej Borzym
!!!END: 2020-06-18
